(======INFO=====================)
(GO S00 – Rapid Positioning)
(GO S01 – Linear Interpolation)
(GO S02 – Circular Interpolation Clockwise)
(GO S03 – Circular Interpolation Counterclockwise)
(S1000	    (---LaserOn 100% ON)       )
(S0 		(---LaserOff 000% OFF)     )
(======START=====================)
(REPLACE .000000 ; )
(REPLACE F0 ; F1000  or F750 )
(REPLACE GO S0 X ; GO S0 F1000 X )
(REPLACE G1 F750 S1000 X ; GO S0 F750 X )
(REPLACE G2 F750 S1000 X ; GO S0 F750 X )
(REPLACE G3 F750 S1000 X ; GO S0 F750 X )
(======CODE MANDATORY============)
M3 S0  (M03 – Spindle on in a clockwise)
(================================)
(=BEGIN Engrave=========================)


(Exported by FreeCAD)
(Post Processor: script_module)
(Output Time:2025-06-26 17:05:07.011719)
(begin preamble)
%
G17 G21 G40 G49 G80 G90
M08
G21
(begin operation: Fixture)
(machine: not set, mm/min)
G54
(finish operation: Fixture)
(begin operation: TC: Default Tool)
(machine: not set, mm/min)
(TC: Default Tool)
M05
M09M6 T1
(finish operation: TC: Default Tool)
(begin operation: Profile)
(machine: not set, mm/min)
(Profile)
(Uncompensated Tool Path)
G0 Z13.992
G0 X116.363 Y176.363
G0 Z11.992
G1 X116.363 Y176.363 Z0.000
G2 X119.000 Y169.978 Z0.000 I-6.366 J-6.366
G1 X119.000 Y10.022 Z0.000
G2 X109.978 Y1.000 Z0.000 I-9.002 J-0.019
G1 X60.157 Y1.000 Z0.000
G2 X1.000 Y60.157 Z0.000 I-0.009 J59.148
G1 X1.000 Y119.843 Z0.000
G2 X60.157 Y179.000 Z0.000 I59.148 J0.009
G1 X109.978 Y179.000 Z0.000
G2 X116.363 Y176.363 Z0.000 I0.019 J-9.002
G0 Z13.992
G0 Z13.992
G0 X116.363 Y176.363
G0 X152.994 Y166.596
G0 X152.994 Y166.596 Z11.992
G1 X152.994 Y166.596 Z0.000
G2 X161.712 Y173.279 Z0.000 I8.698 J-2.319
G1 X235.690 Y173.279 Z0.000
G1 X235.690 Y170.279 Z0.000
G1 X216.690 Y170.279 Z0.000
G3 X215.690 Y169.279 Z0.000 I0.000 J-1.000
G1 X215.690 Y144.779 Z0.000
G1 X199.690 Y144.779 Z0.000
G3 X199.008 Y144.510 Z0.000 I-0.000 J-1.000
G3 X198.690 Y143.779 Z0.000 I0.683 J-0.731
G1 X189.690 Y143.779 Z0.000
G3 X188.690 Y142.779 Z0.000 I0.000 J-1.000
G1 X188.690 Y139.779 Z0.000
G1 X160.690 Y139.779 Z0.000
G1 X160.690 Y142.779 Z0.000
G3 X159.690 Y143.779 Z0.000 I-1.000 J-0.000
G1 X152.690 Y143.779 Z0.000
G1 X152.690 Y164.258 Z0.000
G2 X152.994 Y166.596 Z0.000 I9.002 J0.019
G0 Z13.992
G0 Z13.992
G0 X152.994 Y166.596
G0 X158.284 Y128.373
G0 X158.284 Y128.373 Z11.992
G1 X158.284 Y128.373 Z0.000
G2 X159.538 Y128.458 Z0.000 I1.234 J-8.917
G1 X233.516 Y128.458 Z0.000
G1 X233.516 Y125.458 Z0.000
G1 X214.516 Y125.458 Z0.000
G3 X213.516 Y124.458 Z0.000 I0.000 J-1.000
G1 X213.516 Y99.958 Z0.000
G1 X197.516 Y99.958 Z0.000
G3 X196.516 Y98.958 Z0.000 I0.000 J-1.000
G1 X187.516 Y98.958 Z0.000
G3 X186.516 Y97.958 Z0.000 I0.000 J-1.000
G1 X186.516 Y94.958 Z0.000
G1 X158.516 Y94.958 Z0.000
G1 X158.516 Y97.958 Z0.000
G3 X157.516 Y98.958 Z0.000 I-1.000 J-0.000
G1 X150.516 Y98.958 Z0.000
G1 X150.516 Y119.437 Z0.000
G2 X158.284 Y128.373 Z0.000 I9.002 J0.019
G0 Z13.992
G0 Z13.992
G0 X158.284 Y128.373
G0 X159.576 Y83.985
G0 X159.576 Y83.985 Z11.992
G1 X159.576 Y83.985 Z0.000
G2 X159.858 Y83.989 Z0.000 I0.262 J-8.999
G1 X233.836 Y83.989 Z0.000
G1 X233.836 Y80.989 Z0.000
G1 X214.836 Y80.989 Z0.000
G3 X213.836 Y79.989 Z0.000 I0.000 J-1.000
G1 X213.836 Y55.489 Z0.000
G1 X197.836 Y55.489 Z0.000
G3 X197.153 Y55.220 Z0.000 I-0.000 J-1.000
G3 X196.836 Y54.489 Z0.000 I0.683 J-0.731
G1 X187.836 Y54.489 Z0.000
G3 X186.836 Y53.489 Z0.000 I0.000 J-1.000
G1 X186.836 Y50.489 Z0.000
G1 X158.836 Y50.489 Z0.000
G1 X158.836 Y53.489 Z0.000
G3 X157.836 Y54.489 Z0.000 I-1.000 J-0.000
G1 X150.836 Y54.489 Z0.000
G1 X150.836 Y74.967 Z0.000
G2 X159.576 Y83.985 Z0.000 I9.002 J0.019
G0 Z13.992
G0 Z13.992
G0 X159.576 Y83.985
G0 Y43.359
G0 Y43.359 Z11.992
G1 X159.576 Y43.359 Z0.000
G1 X231.277 Y43.359 Z0.000
G1 X231.277 Y40.359 Z0.000
G1 X212.277 Y40.359 Z0.000
G3 X211.277 Y39.359 Z0.000 I0.000 J-1.000
G1 X211.277 Y14.859 Z0.000
G1 X195.277 Y14.859 Z0.000
G3 X194.277 Y13.859 Z0.000 I0.000 J-1.000
G1 X185.277 Y13.859 Z0.000
G3 X184.277 Y12.859 Z0.000 I0.000 J-1.000
G1 X184.277 Y9.859 Z0.000
G1 X156.277 Y9.859 Z0.000
G1 X156.277 Y12.859 Z0.000
G3 X155.277 Y13.859 Z0.000 I-1.000 J-0.000
G1 X148.277 Y13.859 Z0.000
G1 X148.277 Y34.337 Z0.000
G2 X157.298 Y43.359 Z0.000 I9.002 J0.019
G1 X159.576 Y43.359 Z0.000
G0 Z13.992
G0 Z13.992
(finish operation: Profile)
(==================================================================)
(begin operation: Engrave)
(machine: not set, mm/min)
(Engrave)
GO S0 Z13.992
GO S0 Z13.992
GO S0 X5.000 Y72.500
GO S0 Z11.992
G1 F750 S1000 X5.000 Y72.500 Z2.992
G1 F750 S1000 X5.000 Y107.500 Z2.992
G1 F750 S1000 X51.000 Y107.500 Z2.992
G1 F750 S1000 X51.000 Y72.500 Z2.992
G1 F750 S1000 X5.000 Y72.500 Z2.992
GO S0 Z13.992
GO S0 Z13.992
GO S0 X66.278 Y127.500
GO S0 Z11.992
G1 F750 S1000 X66.278 Y127.500 Z2.992
G1 F750 S1000 X66.278 Y52.500 Z2.992
G1 F750 S1000 X81.278 Y52.500 Z2.992
G1 F750 S1000 X81.278 Y127.500 Z2.992
G1 F750 S1000 X66.278 Y127.500 Z2.992
GO S0 Z13.992
GO S0 Z13.992
GO S0 X83.000 Y148.500
GO S0 Z11.992
G1 F750 S1000 X83.000 Y148.500 Z2.992
G1 F750 S1000 X83.000 Y141.500 Z2.992
G1 F750 S1000 X100.000 Y141.500 Z2.992
G1 F750 S1000 X100.000 Y120.000 Z2.992
G1 F750 S1000 X110.000 Y120.000 Z2.992
G1 F750 S1000 X110.000 Y170.000 Z2.992
G1 F750 S1000 X100.000 Y170.000 Z2.992
G1 F750 S1000 X100.000 Y148.500 Z2.992
G1 F750 S1000 X83.000 Y148.500 Z2.992
GO S0 Z13.992
GO S0 Z13.992
GO S0 X83.000 Y31.500
GO S0 Z11.992
G1 F750 S1000 X83.000 Y31.500 Z2.992
G1 F750 S1000 X100.000 Y31.500 Z2.992
G1 F750 S1000 X100.000 Y10.000 Z2.992
G1 F750 S1000 X110.000 Y10.000 Z2.992
G1 F750 S1000 X110.000 Y60.000 Z2.992
G1 F750 S1000 X100.000 Y60.000 Z2.992
G1 F750 S1000 X100.000 Y38.500 Z2.992
G1 F750 S1000 X83.000 Y38.500 Z2.992
G1 F750 S1000 X83.000 Y31.500 Z2.992
GO S0 Z13.992
GO S0 Z13.992
GO S0 X73.000 Y161.000
GO S0 Z11.992
G1 F750 S1000 X73.000 Y161.000 Z2.992
G1 F750 S1000 X43.000 Y161.000 Z2.992
G1 F750 S1000 X43.000 Y157.000 Z2.992
G1 F750 S1000 X73.000 Y157.000 Z2.992
G1 F750 S1000 X73.000 Y161.000 Z2.992
GO S0 Z13.992
GO S0 Z13.992
GO S0 X73.000 Y147.000
GO S0 Z11.992
G1 F750 S1000 X73.000 Y147.000 Z2.992
G1 F750 S1000 X43.000 Y147.000 Z2.992
G1 F750 S1000 X43.000 Y143.000 Z2.992
G1 F750 S1000 X73.000 Y143.000 Z2.992
G1 F750 S1000 X73.000 Y147.000 Z2.992
GO S0 Z13.992
GO S0 Z13.992
GO S0 X73.000 Y37.000
GO S0 Z11.992
G1 F750 S1000 X73.000 Y37.000 Z2.992
G1 F750 S1000 X43.000 Y37.000 Z2.992
G1 F750 S1000 X43.000 Y33.000 Z2.992
G1 F750 S1000 X73.000 Y33.000 Z2.992
G1 F750 S1000 X73.000 Y37.000 Z2.992
GO S0 Z13.992
GO S0 Z13.992
GO S0 X73.000 Y23.000
GO S0 Z11.992
G1 F750 S1000 X73.000 Y23.000 Z2.992
G1 F750 S1000 X43.000 Y23.000 Z2.992
G1 F750 S1000 X43.000 Y19.000 Z2.992
G1 F750 S1000 X73.000 Y19.000 Z2.992
G1 F750 S1000 X73.000 Y23.000 Z2.992
GO S0 Z13.992
(finish operation: Engrave)
(==================================================================)
(begin operation: Engrave001)
(machine: not set, mm/min)
(Engrave001)
GO S0 Z13.992
GO S0 Z13.992
GO S0 X212.690 Y170.279
GO S0 Z11.992
G1 F750 S1000 X212.690 Y170.279 Z2.992
G1 F750 S1000 X161.690 Y170.279 Z2.992
G3 F750 S1000 X155.690 Y164.279 Z2.992 I0.067 J-6.067
G1 F750 S1000 X155.690 Y148.495 Z2.992
G1 F750 S1000 X212.690 Y148.495 Z2.992
G1 F750 S1000 X212.690 Y170.279 Z2.992
GO S0 Z13.992
(finish operation: Engrave001)
(==================================================================)
(begin operation: Engrave002)
(machine: not set, mm/min)
(Engrave002)
GO S0 Z13.992
GO S0 Z13.992
GO S0 X210.516 Y125.458
GO S0 Z11.992
G1 F750 S1000 X210.516 Y125.458 Z2.992
G1 F750 S1000 X159.516 Y125.458 Z2.992
G3 F750 S1000 X153.516 Y119.458 Z2.992 I0.067 J-6.067
G1 F750 S1000 X153.516 Y103.674 Z2.992
G1 F750 S1000 X210.516 Y103.674 Z2.992
G1 F750 S1000 X210.516 Y125.458 Z2.992
GO S0 Z13.992
(finish operation: Engrave002)
(==================================================================)
(begin operation: Engrave003)
(machine: not set, mm/min)
(Engrave003)
GO S0 Z13.992
GO S0 Z13.992
GO S0 X153.836 Y59.205
GO S0 Z11.992
G1 F750 S1000 X153.836 Y59.205 Z2.992
G1 F750 S1000 X210.836 Y59.205 Z2.992
G1 F750 S1000 X210.836 Y80.989 Z2.992
G1 F750 S1000 X159.836 Y80.989 Z2.992
G3 F750 S1000 X153.836 Y74.989 Z2.992 I0.067 J-6.067
G1 F750 S1000 X153.836 Y59.205 Z2.992
GO S0 Z13.992
(finish operation: Engrave003)
(==================================================================)
(begin operation: Engrave004)
(machine: not set, mm/min)
(Engrave004)
GO S0 Z13.992
GO S0 Z13.992
GO S0 X151.277 Y18.575
GO S0 Z11.992
G1 F750 S1000 X151.277 Y18.575 Z2.992
G1 F750 S1000 X208.277 Y18.575 Z2.992
G1 F750 S1000 X208.277 Y40.359 Z2.992
G1 F750 S1000 X157.277 Y40.359 Z2.992
G3 F750 S1000 X151.277 Y34.359 Z2.992 I0.067 J-6.067
G1 F750 S1000 X151.277 Y18.575 Z2.992
GO S0 Z13.992
(finish operation: Engrave004)
(==================================================================)
(begin operation: Engrave005)
(machine: not set, mm/min)
(Engrave005)
GO S0 Z13.992
GO S0 Z13.992
GO S0 X31.195 Y128.038
GO S0 Z11.992
G1 F750 S1000 X31.195 Y128.038 Z2.992
G3 F750 S1000 X31.195 Y128.038 Z2.992 I-2.500 J0.000
GO S0 Z13.992
GO S0 Z13.992
GO S0 X116.125 Y90.000
GO S0 Z11.992
G1 F750 S1000 X116.125 Y90.000 Z2.992
G3 F750 S1000 X116.125 Y90.000 Z2.992 I-2.500 J0.000
GO S0 Z13.992
GO S0 Z13.992
GO S0 X31.195 Y54.631
GO S0 Z11.992
G1 F750 S1000 X31.195 Y54.631 Z2.992
G3 F750 S1000 X31.195 Y54.631 Z2.992 I-2.500 J0.000
GO S0 Z13.992
(finish operation: Engrave005)
(begin postamble)
M05 M09
G17 G90 G80 G40
M30

(=END Engrave===========================)
(======END============)
(G00 – Rapid Positioning------------Laser OFF)
S0 (---Laser 00% OFF)
G0 Z10.000000
(======END============)
