(Exported by FreeCAD)
(Post Processor: KineticNCBeamicon2_post)
(Output Time:2026-04-02 12:26:28.179405)
(begin preamble)
%
G17 G21 G40 G49 G80 G90
M08
G21
(begin operation: Fixture)
(machine: not set, mm/min)
G54
(finish operation: Fixture)
(begin operation: TC: Default Tool)
(machine: not set, mm/min)
(TC: Default Tool)
M05
M09M6 T1
(finish operation: TC: Default Tool)
(begin operation: Engrave)
(machine: not set, mm/min)
(Engrave)
G0 Z10.000
G0 Z10.000
G0 X107.207 Y62.700
G0 Z8.000
G1 X107.207 Y62.700 Z0.000
G3 X107.207 Y62.700 Z0.000 I-39.000 J0.000
G0 Z10.000
G0 Z10.000
G0 X13.207 Y110.200
G0 Z8.000
G1 X13.207 Y110.200 Z0.000
G1 X13.207 Y15.200 Z0.000
G1 X123.207 Y15.200 Z0.000
G1 X123.207 Y110.200 Z0.000
G1 X13.207 Y110.200 Z0.000
G0 Z10.000
G0 Z10.000
G0 X23.391 Y102.700
G0 Z8.000
G1 X23.391 Y102.700 Z0.000
G3 X23.391 Y102.700 Z0.000 I-1.500 J0.000
G0 Z10.000
G0 Z10.000
G0 X116.023 Y102.700
G0 Z8.000
G1 X116.023 Y102.700 Z0.000
G3 X116.023 Y102.700 Z0.000 I-1.500 J0.000
G0 Z10.000
G0 Z10.000
G0 X116.023 Y22.700
G0 Z8.000
G1 X116.023 Y22.700 Z0.000
G3 X116.023 Y22.700 Z0.000 I-1.500 J0.000
G0 Z10.000
G0 Z10.000
G0 X23.391 Y22.700
G0 Z8.000
G1 X23.391 Y22.700 Z0.000
G3 X23.391 Y22.700 Z0.000 I-1.500 J0.000
G0 Z10.000
(finish operation: Engrave)
(begin operation: Engrave001)
(machine: not set, mm/min)
(Engrave001)
G0 Z10.000
G0 Z10.000
G0 X217.207 Y62.700
G0 Z8.000
G1 X217.207 Y62.700 Z-1.000
G3 X217.207 Y62.700 Z-1.000 I-39.000 J0.000
G0 Z10.000
G0 Z10.000
G0 X123.207 Y15.200
G0 Z8.000
G1 X123.207 Y15.200 Z-1.000
G1 X233.207 Y15.200 Z-1.000
G1 X233.207 Y110.200 Z-1.000
G1 X123.207 Y110.200 Z-1.000
G0 Z10.000
G0 Z10.000
G0 X133.391 Y22.700
G0 Z8.000
G1 X133.391 Y22.700 Z-1.000
G3 X133.391 Y22.700 Z-1.000 I-1.500 J0.000
G0 Z10.000
G0 Z10.000
G0 X133.391 Y102.700
G0 Z8.000
G1 X133.391 Y102.700 Z-1.000
G3 X133.391 Y102.700 Z-1.000 I-1.500 J0.000
G0 Z10.000
G0 Z10.000
G0 X226.023 Y102.700
G0 Z8.000
G1 X226.023 Y102.700 Z-1.000
G3 X226.023 Y102.700 Z-1.000 I-1.500 J0.000
G0 Z10.000
G0 Z10.000
G0 X226.023 Y22.700
G0 Z8.000
G1 X226.023 Y22.700 Z-1.000
G3 X226.023 Y22.700 Z-1.000 I-1.500 J0.000
G0 Z10.000
(finish operation: Engrave001)
(begin postamble)
M05 M09
G17 G90 G80 G40
M30
