(Exported by FreeCAD)
(Post Processor: grbl_post)
(Output Time:2026-03-31 18:31:42.374091)
(Begin preamble)
G17 G90
G21
(Begin operation: Fixture)
(Path: Fixture)
G54
(Finish operation: Fixture)
(Begin operation: TC: Default Tool)
(Path: TC: Default Tool)
(TC: Default Tool)
(Begin toolchange)
( M6 T1 )
M3 S500
(Finish operation: TC: Default Tool)
(Begin operation: Engrave_A1)
(Path: Engrave_A1)
(Engrave_A1)
G0 Z10.000
G0 Z10.000
G0 X35.600 Y255.800
G0 Z8.000
G1 X35.600 Y255.800 Z-1.000 F60000.000
G1 X35.600 Y251.800 Z-1.000 F60000.000
G1 X55.600 Y251.800 Z-1.000 F60000.000
G1 X55.600 Y255.800 Z-1.000 F60000.000
G1 X75.600 Y255.800 Z-1.000 F60000.000
G1 X75.600 Y251.800 Z-1.000 F60000.000
G1 X95.600 Y251.800 Z-1.000 F60000.000
G1 X95.600 Y255.800 Z-1.000 F60000.000
G1 X115.600 Y255.800 Z-1.000 F60000.000
G1 X115.600 Y251.800 Z-1.000 F60000.000
G1 X135.600 Y251.800 Z-1.000 F60000.000
G1 X135.600 Y255.800 Z-1.000 F60000.000
G1 X155.600 Y255.800 Z-1.000 F60000.000
G1 X155.600 Y251.800 Z-1.000 F60000.000
G1 X175.600 Y251.800 Z-1.000 F60000.000
G1 X175.600 Y255.800 Z-1.000 F60000.000
G1 X195.600 Y255.800 Z-1.000 F60000.000
G1 X195.600 Y251.800 Z-1.000 F60000.000
G1 X215.600 Y251.800 Z-1.000 F60000.000
G1 X215.600 Y255.800 Z-1.000 F60000.000
G1 X235.600 Y255.800 Z-1.000 F60000.000
G1 X235.600 Y251.800 Z-1.000 F60000.000
G1 X255.600 Y251.800 Z-1.000 F60000.000
G3 X265.600 Y261.800 Z-1.000 I0.000 J10.000 K0.000 F60000.000
G1 X265.600 Y391.800 Z-1.000 F60000.000
G3 X255.600 Y401.800 Z-1.000 I-10.000 J0.000 K0.000 F60000.000
G1 X235.600 Y401.800 Z-1.000 F60000.000
G1 X235.600 Y397.800 Z-1.000 F60000.000
G1 X215.600 Y397.800 Z-1.000 F60000.000
G1 X215.600 Y401.800 Z-1.000 F60000.000
G1 X195.600 Y401.800 Z-1.000 F60000.000
G1 X195.600 Y397.800 Z-1.000 F60000.000
G1 X175.600 Y397.800 Z-1.000 F60000.000
G1 X175.600 Y401.800 Z-1.000 F60000.000
G1 X155.600 Y401.800 Z-1.000 F60000.000
G1 X155.600 Y397.800 Z-1.000 F60000.000
G1 X135.600 Y397.800 Z-1.000 F60000.000
G1 X135.600 Y401.800 Z-1.000 F60000.000
G1 X115.600 Y401.800 Z-1.000 F60000.000
G1 X115.600 Y397.800 Z-1.000 F60000.000
G1 X95.600 Y397.800 Z-1.000 F60000.000
G1 X95.600 Y401.800 Z-1.000 F60000.000
G1 X75.600 Y401.800 Z-1.000 F60000.000
G1 X75.600 Y397.800 Z-1.000 F60000.000
G1 X55.600 Y397.800 Z-1.000 F60000.000
G1 X55.600 Y401.800 Z-1.000 F60000.000
G1 X35.600 Y401.800 Z-1.000 F60000.000
G1 X35.600 Y397.800 Z-1.000 F60000.000
G1 X15.600 Y397.800 Z-1.000 F60000.000
G1 X15.600 Y255.800 Z-1.000 F60000.000
G1 X35.600 Y255.800 Z-1.000 F60000.000
G0 Z10.000
G0 Z10.000
G0 X67.463 Y285.580
G0 Z8.000
G1 X67.463 Y285.580 Z-1.000 F60000.000
G1 X67.463 Y278.788 Z-1.000 F60000.000
G1 X39.890 Y278.788 Z-1.000 F60000.000
G1 X39.890 Y285.580 Z-1.000 F60000.000
G1 X67.463 Y285.580 Z-1.000 F60000.000
G0 Z10.000
G0 Z10.000
G0 X24.837 Y289.300
G0 Z8.000
G1 X24.837 Y289.300 Z-1.000 F60000.000
G1 X44.837 Y289.300 Z-1.000 F60000.000
G1 X44.837 Y364.300 Z-1.000 F60000.000
G1 X24.837 Y364.300 Z-1.000 F60000.000
G1 X24.837 Y289.300 Z-1.000 F60000.000
G0 Z10.000
G0 Z10.000
G0 X39.890 Y374.812
G0 Z8.000
G1 X39.890 Y374.812 Z-1.000 F60000.000
G1 X39.890 Y368.020 Z-1.000 F60000.000
G1 X67.463 Y368.020 Z-1.000 F60000.000
G1 X67.463 Y374.812 Z-1.000 F60000.000
G1 X39.890 Y374.812 Z-1.000 F60000.000
G0 Z10.000
G0 Z10.000
G0 X23.033 Y348.637
G0 Z8.000
G1 X23.033 Y348.637 Z-1.000 F60000.000
G3 X23.033 Y348.637 Z-1.000 I-2.000 J0.000 K0.000 F60000.000
G0 Z10.000
G0 Z10.000
G0 X50.424 Y348.637
G0 Z8.000
G1 X50.424 Y348.637 Z-1.000 F60000.000
G3 X50.424 Y348.637 Z-1.000 I-2.000 J0.000 K0.000 F60000.000
G0 Z10.000
G0 Z10.000
G0 X50.424 Y304.963
G0 Z8.000
G1 X50.424 Y304.963 Z-1.000 F60000.000
G3 X50.424 Y304.963 Z-1.000 I-2.000 J0.000 K0.000 F60000.000
G0 Z10.000
G0 Z10.000
G0 X23.033 Y304.963
G0 Z8.000
G1 X23.033 Y304.963 Z-1.000 F60000.000
G3 X23.033 Y304.963 Z-1.000 I-2.000 J0.000 K0.000 F60000.000
G0 Z10.000
G0 Z10.000
G0 X257.100 Y326.800
G0 Z8.000
G1 X257.100 Y326.800 Z-1.000 F60000.000
G3 X257.100 Y326.800 Z-1.000 I-41.500 J0.000 K0.000 F60000.000
G0 Z10.000
(Finish operation: Engrave_A1)
(Begin operation: Engrave_B1)
(Path: Engrave_B1)
(Engrave_B1)
G0 Z10.000
G0 Z10.000
G0 X180.518 Y336.906
G0 Z8.000
G1 X180.518 Y336.906 Z-1.000 F60000.000
G1 X180.518 Y316.906 Z-1.000 F60000.000
G1 X195.528 Y316.906 Z-1.000 F60000.000
G1 X195.528 Y312.906 Z-1.000 F60000.000
G1 X235.528 Y312.906 Z-1.000 F60000.000
G1 X235.528 Y316.906 Z-1.000 F60000.000
G1 X250.518 Y316.906 Z-1.000 F60000.000
G1 X250.518 Y336.906 Z-1.000 F60000.000
G1 X235.528 Y336.906 Z-1.000 F60000.000
G1 X235.528 Y340.906 Z-1.000 F60000.000
G1 X195.528 Y340.906 Z-1.000 F60000.000
G1 X195.528 Y336.906 Z-1.000 F60000.000
G1 X180.518 Y336.906 Z-1.000 F60000.000
G0 Z10.000
G0 Z10.000
G0 X219.523 Y286.102
G0 Z8.000
G1 X219.523 Y286.102 Z-1.000 F60000.000
G3 X256.518 Y326.906 Z-1.000 I-4.006 J40.804 K0.000 F60000.000
G3 X219.523 Y367.710 Z-1.000 I-41.000 J0.000 K0.000 F60000.000
G2 X211.533 Y367.712 Z-1.000 I-3.995 J0.196 K0.000 F60000.000
G3 X211.533 Y286.100 Z-1.000 I3.985 J-40.806 K0.000 F60000.000
G2 X219.523 Y286.102 Z-1.000 I3.995 J-0.191 K0.000 F60000.000
G0 Z10.000
(Finish operation: Engrave_B1)
(Begin operation: Lever_01)
(Path: Lever_01)
(Lever_01)
G0 Z10.000
G0 Z10.000
G0 X279.495 Y343.389
G0 Z8.000
G1 X279.495 Y343.389 Z-1.000 F60000.000
G1 X277.101 Y343.389 Z-1.000 F60000.000
G1 X277.101 Y323.389 Z-1.000 F60000.000
G1 X279.495 Y323.389 Z-1.000 F60000.000
G1 X279.495 Y315.889 Z-1.000 F60000.000
G3 X289.495 Y315.889 Z-1.000 I5.000 J0.000 K0.000 F60000.000
G1 X289.495 Y323.389 Z-1.000 F60000.000
G1 X291.969 Y323.389 Z-1.000 F60000.000
G1 X291.969 Y343.389 Z-1.000 F60000.000
G1 X289.495 Y343.389 Z-1.000 F60000.000
G1 X289.495 Y350.889 Z-1.000 F60000.000
G3 X279.495 Y350.889 Z-1.000 I-5.000 J-0.000 K0.000 F60000.000
G1 X279.495 Y343.389 Z-1.000 F60000.000
G0 Z10.000
G0 Z10.000
G0 X285.460 Y350.889
G0 Z8.000
G1 X285.460 Y350.889 Z-1.000 F60000.000
G3 X285.460 Y350.889 Z-1.000 I-0.965 J0.000 K0.000 F60000.000
G0 Z10.000
G0 Z10.000
G0 X285.460 Y315.889
G0 Z8.000
G1 X285.460 Y315.889 Z-1.000 F60000.000
G3 X285.460 Y315.889 Z-1.000 I-0.965 J0.000 K0.000 F60000.000
G0 Z10.000
(Finish operation: Lever_01)
(Begin operation: Engrave_B2_B3)
(Path: Engrave_B2_B3)
(Engrave_B2_B3)
G0 Z10.000
G0 Z10.000
G0 X122.028 Y185.382
G0 Z8.000
G1 X122.028 Y185.382 Z-1.000 F60000.000
G1 X137.028 Y185.382 Z-1.000 F60000.000
G1 X137.028 Y181.382 Z-1.000 F60000.000
G1 X177.028 Y181.382 Z-1.000 F60000.000
G1 X177.028 Y185.382 Z-1.000 F60000.000
G1 X192.028 Y185.382 Z-1.000 F60000.000
G1 X192.028 Y206.382 Z-1.000 F60000.000
G3 X162.028 Y236.382 Z-1.000 I-30.000 J-0.000 K0.000 F60000.000
G1 X162.028 Y232.382 Z-1.000 F60000.000
G1 X152.028 Y232.382 Z-1.000 F60000.000
G1 X152.028 Y236.382 Z-1.000 F60000.000
G3 X122.028 Y206.382 Z-1.000 I0.000 J-30.000 K-0.000 F60000.000
G1 X122.028 Y185.382 Z-1.000 F60000.000
G0 Z10.000
G0 Z10.000
G0 X159.028 Y193.382
G0 Z8.000
G1 X159.028 Y193.382 Z-1.000 F60000.000
G3 X159.028 Y193.382 Z-1.000 I-2.000 J0.000 K0.000 F60000.000
G0 Z10.000
G0 Z10.000
G0 Z10.000
G0 X122.028 Y185.382
G0 Z8.000
G1 X122.028 Y185.382 Z-1.000 F60000.000
G1 X137.028 Y185.382 Z-1.000 F60000.000
G1 X137.028 Y181.382 Z-1.000 F60000.000
G1 X177.028 Y181.382 Z-1.000 F60000.000
G1 X177.028 Y185.382 Z-1.000 F60000.000
G1 X192.028 Y185.382 Z-1.000 F60000.000
G1 X192.028 Y206.382 Z-1.000 F60000.000
G3 X162.028 Y236.382 Z-1.000 I-30.000 J-0.000 K0.000 F60000.000
G1 X162.028 Y232.382 Z-1.000 F60000.000
G1 X152.028 Y232.382 Z-1.000 F60000.000
G1 X152.028 Y236.382 Z-1.000 F60000.000
G3 X122.028 Y206.382 Z-1.000 I0.000 J-30.000 K-0.000 F60000.000
G1 X122.028 Y185.382 Z-1.000 F60000.000
G0 Z10.000
G0 Z10.000
G0 X159.028 Y193.382
G0 Z8.000
G1 X159.028 Y193.382 Z-1.000 F60000.000
G3 X159.028 Y193.382 Z-1.000 I-2.000 J0.000 K0.000 F60000.000
G0 Z10.000
G0 Z10.000
G0 X223.328 Y194.182
G0 Z8.000
G1 X223.328 Y194.182 Z-1.000 F60000.000
G1 X223.328 Y190.182 Z-1.000 F60000.000
G1 X263.328 Y190.182 Z-1.000 F60000.000
G1 X263.328 Y194.182 Z-1.000 F60000.000
G1 X278.328 Y194.182 Z-1.000 F60000.000
G1 X278.328 Y215.182 Z-1.000 F60000.000
G3 X248.328 Y245.182 Z-1.000 I-30.000 J0.000 K0.000 F60000.000
G1 X248.328 Y241.182 Z-1.000 F60000.000
G1 X238.328 Y241.182 Z-1.000 F60000.000
G1 X238.328 Y245.182 Z-1.000 F60000.000
G3 X208.328 Y215.182 Z-1.000 I0.000 J-30.000 K-0.000 F60000.000
G1 X208.328 Y194.182 Z-1.000 F60000.000
G1 X223.328 Y194.182 Z-1.000 F60000.000
G0 Z10.000
G0 Z10.000
G0 X245.328 Y202.182
G0 Z8.000
G1 X245.328 Y202.182 Z-1.000 F60000.000
G3 X245.328 Y202.182 Z-1.000 I-2.000 J0.000 K0.000 F60000.000
G0 Z10.000
(Finish operation: Engrave_B2_B3)
(Begin operation: Engrave_C2)
(Path: Engrave_C2)
(Engrave_C2)
G0 Z10.000
G0 Z10.000
G0 X285.674 Y3.548
G0 Z8.000
G1 X285.674 Y3.548 Z-1.000 F60000.000
G3 X290.674 Y8.548 Z-1.000 I0.000 J5.000 K0.000 F60000.000
G1 X290.674 Y178.548 Z-1.000 F60000.000
G3 X285.674 Y183.548 Z-1.000 I-5.000 J0.000 K0.000 F60000.000
G1 X240.674 Y183.548 Z-1.000 F60000.000
G1 X240.674 Y3.548 Z-1.000 F60000.000
G1 X285.674 Y3.548 Z-1.000 F60000.000
G0 Z10.000
G0 Z10.000
G0 X250.674 Y22.548
G0 Z8.000
G1 X250.674 Y22.548 Z-1.000 F60000.000
G1 X250.674 Y18.548 Z-1.000 F60000.000
G1 X270.674 Y18.548 Z-1.000 F60000.000
G1 X270.674 Y22.548 Z-1.000 F60000.000
G1 X250.674 Y22.548 Z-1.000 F60000.000
G0 Z10.000
G0 Z10.000
G0 X250.674 Y101.048
G0 Z8.000
G1 X250.674 Y101.048 Z-1.000 F60000.000
G1 X250.674 Y86.048 Z-1.000 F60000.000
G1 X274.674 Y86.048 Z-1.000 F60000.000
G1 X274.674 Y101.048 Z-1.000 F60000.000
G1 X250.674 Y101.048 Z-1.000 F60000.000
G0 Z10.000
G0 Z10.000
G0 X249.924 Y93.548
G0 Z8.000
G1 X249.924 Y93.548 Z-1.000 F60000.000
G3 X249.924 Y93.548 Z-1.000 I-0.750 J0.000 K0.000 F60000.000
G0 Z10.000
G0 Z10.000
G0 X276.924 Y93.548
G0 Z8.000
G1 X276.924 Y93.548 Z-1.000 F60000.000
G3 X276.924 Y93.548 Z-1.000 I-0.750 J0.000 K0.000 F60000.000
G0 Z10.000
G0 Z10.000
G0 X250.674 Y164.548
G0 Z8.000
G1 X250.674 Y164.548 Z-1.000 F60000.000
G1 X250.674 Y168.548 Z-1.000 F60000.000
G1 X270.674 Y168.548 Z-1.000 F60000.000
G1 X270.674 Y164.548 Z-1.000 F60000.000
G1 X250.674 Y164.548 Z-1.000 F60000.000
G0 Z10.000
(Finish operation: Engrave_C2)
(Begin operation: Engrave_C1)
(Path: Engrave_C1)
(Engrave_C1)
G0 Z10.000
G0 Z10.000
G0 X124.611 Y6.939
G0 Z8.000
G1 X124.611 Y6.939 Z-1.000 F60000.000
G1 X124.611 Y156.939 Z-1.000 F60000.000
G1 X144.611 Y156.939 Z-1.000 F60000.000
G1 X144.611 Y152.939 Z-1.000 F60000.000
G1 X170.611 Y152.939 Z-1.000 F60000.000
G1 X170.611 Y10.939 Z-1.000 F60000.000
G1 X144.611 Y10.939 Z-1.000 F60000.000
G1 X144.611 Y6.939 Z-1.000 F60000.000
G1 X124.611 Y6.939 Z-1.000 F60000.000
G0 Z10.000
G0 Z10.000
G0 X144.611 Y42.439
G0 Z8.000
G1 X144.611 Y42.439 Z-1.000 F60000.000
G1 X154.611 Y42.439 Z-1.000 F60000.000
G1 X154.611 Y32.439 Z-1.000 F60000.000
G1 X144.611 Y32.439 Z-1.000 F60000.000
G1 X144.611 Y42.439 Z-1.000 F60000.000
G0 Z10.000
G0 Z10.000
G0 X144.611 Y131.439
G0 Z8.000
G1 X144.611 Y131.439 Z-1.000 F60000.000
G1 X154.611 Y131.439 Z-1.000 F60000.000
G1 X154.611 Y121.439 Z-1.000 F60000.000
G1 X144.611 Y121.439 Z-1.000 F60000.000
G1 X144.611 Y131.439 Z-1.000 F60000.000
G0 Z10.000
G0 Z10.000
G0 X159.611 Y134.939
G0 Z8.000
G1 X159.611 Y134.939 Z-1.000 F60000.000
G2 X159.611 Y134.939 Z-1.000 I0.000 J2.000 K0.000 F60000.000
G0 Z10.000
G0 Z10.000
G0 X159.611 Y113.939
G0 Z8.000
G1 X159.611 Y113.939 Z-1.000 F60000.000
G2 X159.611 Y113.939 Z-1.000 I-0.000 J2.000 K0.000 F60000.000
G0 Z10.000
G0 Z10.000
G0 X159.611 Y45.939
G0 Z8.000
G1 X159.611 Y45.939 Z-1.000 F60000.000
G2 X159.611 Y45.939 Z-1.000 I0.000 J2.000 K0.000 F60000.000
G0 Z10.000
G0 Z10.000
G0 X159.611 Y24.939
G0 Z8.000
G1 X159.611 Y24.939 Z-1.000 F60000.000
G2 X159.611 Y24.939 Z-1.000 I0.000 J2.000 K0.000 F60000.000
G0 Z10.000
(Finish operation: Engrave_C1)
(Begin operation: Engrave_A2)
(Path: Engrave_A2)
(Engrave_A2)
G0 Z10.000
G0 Z10.000
G0 X6.743 Y223.656
G0 Z8.000
G1 X6.743 Y223.656 Z-1.000 F60000.000
G1 X10.743 Y223.656 Z-1.000 F60000.000
G1 X10.743 Y203.656 Z-1.000 F60000.000
G1 X6.743 Y203.656 Z-1.000 F60000.000
G1 X6.743 Y183.656 Z-1.000 F60000.000
G1 X10.743 Y183.656 Z-1.000 F60000.000
G1 X10.743 Y163.656 Z-1.000 F60000.000
G1 X6.743 Y163.656 Z-1.000 F60000.000
G1 X6.743 Y143.656 Z-1.000 F60000.000
G1 X10.743 Y143.656 Z-1.000 F60000.000
G1 X10.743 Y123.656 Z-1.000 F60000.000
G1 X6.743 Y123.656 Z-1.000 F60000.000
G1 X6.743 Y103.656 Z-1.000 F60000.000
G1 X10.743 Y103.656 Z-1.000 F60000.000
G1 X10.743 Y83.656 Z-1.000 F60000.000
G1 X6.743 Y83.656 Z-1.000 F60000.000
G1 X6.743 Y63.656 Z-1.000 F60000.000
G1 X10.743 Y63.656 Z-1.000 F60000.000
G1 X10.743 Y43.656 Z-1.000 F60000.000
G1 X6.743 Y43.656 Z-1.000 F60000.000
G1 X6.743 Y23.656 Z-1.000 F60000.000
G1 X10.743 Y23.656 Z-1.000 F60000.000
G1 X10.743 Y3.656 Z-1.000 F60000.000
G1 X36.743 Y3.656 Z-1.000 F60000.000
G1 X56.743 Y23.656 Z-1.000 F60000.000
G1 X56.743 Y33.656 Z-1.000 F60000.000
G1 X51.743 Y33.656 Z-1.000 F60000.000
G1 X51.743 Y53.656 Z-1.000 F60000.000
G1 X56.743 Y53.656 Z-1.000 F60000.000
G1 X56.743 Y73.656 Z-1.000 F60000.000
G1 X51.743 Y73.656 Z-1.000 F60000.000
G1 X51.743 Y83.656 Z-1.000 F60000.000
G1 X56.743 Y83.656 Z-1.000 F60000.000
G1 X56.743 Y179.656 Z-1.000 F60000.000
G1 X36.743 Y179.656 Z-1.000 F60000.000
G1 X36.743 Y183.656 Z-1.000 F60000.000
G1 X56.743 Y183.656 Z-1.000 F60000.000
G1 X56.743 Y243.656 Z-1.000 F60000.000
G1 X6.743 Y243.656 Z-1.000 F60000.000
G1 X6.743 Y223.656 Z-1.000 F60000.000
G0 Z10.000
G0 Z10.000
G0 X24.607 Y240.179
G0 Z8.000
G1 X24.607 Y240.179 Z-1.000 F60000.000
G1 X19.607 Y240.179 Z-1.000 F60000.000
G1 X19.607 Y235.179 Z-1.000 F60000.000
G1 X24.607 Y235.179 Z-1.000 F60000.000
G1 X24.607 Y240.179 Z-1.000 F60000.000
G0 Z10.000
G0 Z10.000
G0 X31.107 Y225.179
G0 Z8.000
G1 X31.107 Y225.179 Z-1.000 F60000.000
G3 X31.107 Y225.179 Z-1.000 I0.000 J1.500 K0.000 F60000.000
G0 Z10.000
G0 Z10.000
G0 X13.107 Y225.179
G0 Z8.000
G1 X13.107 Y225.179 Z-1.000 F60000.000
G3 X13.107 Y225.179 Z-1.000 I0.000 J1.500 K0.000 F60000.000
G0 Z10.000
G0 Z10.000
G0 X22.107 Y216.679
G0 Z8.000
G1 X22.107 Y216.679 Z-1.000 F60000.000
G3 X22.107 Y216.679 Z-1.000 I0.000 J2.000 K0.000 F60000.000
G0 Z10.000
G0 Z10.000
G0 X22.107 Y201.679
G0 Z8.000
G1 X22.107 Y201.679 Z-1.000 F60000.000
G3 X22.107 Y201.679 Z-1.000 I0.000 J6.000 K0.000 F60000.000
G0 Z10.000
(Finish operation: Engrave_A2)
(Begin operation: Engrave_A3)
(Path: Engrave_A3)
(Engrave_A3)
G0 Z10.000
G0 Z10.000
G0 X60.243 Y223.756
G0 Z8.000
G1 X60.243 Y223.756 Z-1.000 F60000.000
G1 X64.243 Y223.756 Z-1.000 F60000.000
G1 X64.243 Y203.756 Z-1.000 F60000.000
G1 X60.243 Y203.756 Z-1.000 F60000.000
G1 X60.243 Y183.756 Z-1.000 F60000.000
G1 X64.243 Y183.756 Z-1.000 F60000.000
G1 X64.243 Y163.756 Z-1.000 F60000.000
G1 X60.243 Y163.756 Z-1.000 F60000.000
G1 X60.243 Y143.756 Z-1.000 F60000.000
G1 X64.243 Y143.756 Z-1.000 F60000.000
G1 X64.243 Y123.756 Z-1.000 F60000.000
G1 X60.243 Y123.756 Z-1.000 F60000.000
G1 X60.243 Y103.756 Z-1.000 F60000.000
G1 X64.243 Y103.756 Z-1.000 F60000.000
G1 X64.243 Y83.756 Z-1.000 F60000.000
G1 X60.243 Y83.756 Z-1.000 F60000.000
G1 X60.243 Y63.756 Z-1.000 F60000.000
G1 X64.243 Y63.756 Z-1.000 F60000.000
G1 X64.243 Y43.756 Z-1.000 F60000.000
G1 X60.243 Y43.756 Z-1.000 F60000.000
G1 X60.243 Y23.756 Z-1.000 F60000.000
G1 X64.243 Y23.756 Z-1.000 F60000.000
G1 X64.243 Y3.756 Z-1.000 F60000.000
G1 X90.243 Y3.756 Z-1.000 F60000.000
G1 X110.243 Y23.756 Z-1.000 F60000.000
G1 X110.243 Y33.756 Z-1.000 F60000.000
G1 X105.243 Y33.756 Z-1.000 F60000.000
G1 X105.243 Y53.756 Z-1.000 F60000.000
G1 X110.243 Y53.756 Z-1.000 F60000.000
G1 X110.243 Y73.756 Z-1.000 F60000.000
G1 X105.243 Y73.756 Z-1.000 F60000.000
G1 X105.243 Y83.756 Z-1.000 F60000.000
G1 X110.243 Y83.756 Z-1.000 F60000.000
G1 X110.243 Y179.756 Z-1.000 F60000.000
G1 X90.243 Y179.756 Z-1.000 F60000.000
G1 X90.243 Y183.756 Z-1.000 F60000.000
G1 X110.243 Y183.756 Z-1.000 F60000.000
G1 X110.243 Y243.756 Z-1.000 F60000.000
G1 X60.243 Y243.756 Z-1.000 F60000.000
G1 X60.243 Y223.756 Z-1.000 F60000.000
G0 Z10.000
G0 Z10.000
G0 X78.107 Y240.279
G0 Z8.000
G1 X78.107 Y240.279 Z-1.000 F60000.000
G1 X73.107 Y240.279 Z-1.000 F60000.000
G1 X73.107 Y235.279 Z-1.000 F60000.000
G1 X78.107 Y235.279 Z-1.000 F60000.000
G1 X78.107 Y240.279 Z-1.000 F60000.000
G0 Z10.000
G0 Z10.000
G0 X84.607 Y225.279
G0 Z8.000
G1 X84.607 Y225.279 Z-1.000 F60000.000
G3 X84.607 Y225.279 Z-1.000 I0.000 J1.500 K0.000 F60000.000
G0 Z10.000
G0 Z10.000
G0 X66.607 Y225.279
G0 Z8.000
G1 X66.607 Y225.279 Z-1.000 F60000.000
G3 X66.607 Y225.279 Z-1.000 I0.000 J1.500 K0.000 F60000.000
G0 Z10.000
G0 Z10.000
G0 X75.607 Y216.779
G0 Z8.000
G1 X75.607 Y216.779 Z-1.000 F60000.000
G3 X75.607 Y216.779 Z-1.000 I0.000 J2.000 K0.000 F60000.000
G0 Z10.000
G0 Z10.000
G0 X75.607 Y201.779
G0 Z8.000
G1 X75.607 Y201.779 Z-1.000 F60000.000
G3 X75.607 Y201.779 Z-1.000 I0.000 J6.000 K0.000 F60000.000
G0 Z10.000
(Finish operation: Engrave_A3)
(Begin postamble)
M5
G17 G90
M2
